assets/svg/app/snx-stat-background.svg

<svg width="129" height="91" viewBox="0 0 129 91" fill="none" xmlns="http://www.w3.org/2000/svg">
<path d="M31.168 21.2027C30.2661 20.1716 29.1556 19.6548 27.8342 19.6548H0.809811C0.569777 19.6548 0.373386 19.5789 0.225486 19.427C0.0751621 19.2776 0 19.1087 0 18.9274V0.727412C0 0.546171 0.0751621 0.379626 0.225486 0.227776C0.373386 0.0759252 0.569777 0 0.809811 0H29.3666C36.5724 0 42.7891 2.94394 48.014 8.82691L54.9508 17.2889L41.4386 33.7598L31.168 21.2027ZM81.0757 8.73629C86.3007 2.9121 92.5464 0 99.8129 0H128.28C128.52 0 128.699 0.06123 128.821 0.181241C128.939 0.303701 129 0.484941 129 0.727412V18.9274C129 19.1087 128.939 19.2776 128.821 19.427C128.699 19.5789 128.52 19.6548 128.28 19.6548H101.255C99.9341 19.6548 98.8236 20.1716 97.9217 21.2027L78.0134 45.4082L98.0114 69.7948C98.9133 70.7672 99.9923 71.2521 101.255 71.2521H128.28C128.52 71.2521 128.699 71.328 128.821 71.4799C128.939 71.6317 129 71.8301 129 72.0701V90.2701C129 90.4514 128.939 90.6204 128.821 90.7698C128.699 90.9216 128.52 90.9976 128.28 90.9976H99.8129C92.5464 90.9976 86.3298 88.0561 81.1654 82.1706L64.5909 61.9696L48.014 82.1706C42.7891 88.0561 36.5433 90.9976 29.2769 90.9976H0.809811C0.569777 90.9976 0.387933 90.9216 0.269129 90.7698C0.1479 90.6179 0.0897096 90.422 0.0897096 90.1771V71.9771C0.0897096 71.7958 0.1479 71.6293 0.269129 71.4774C0.387933 71.3256 0.569777 71.2497 0.809811 71.2497H27.8342C29.095 71.2497 30.2055 70.7353 31.168 69.7018L50.715 45.8613L81.0757 8.73629Z" fill="#00D1FF"/>
<rect width="129" height="91" fill="url(#paint0_linear-377295)"/>
<defs>
<linearGradient id="paint0_linear-377295" x1="64.5" y1="91" x2="64.5" y2="-39.6229" gradientUnits="userSpaceOnUse">
<stop stop-color="#06061B"/>
<stop offset="1" stop-color="#06061B" stop-opacity="0.76"/>
</linearGradient>
</defs>
</svg>

<svg width="129" height="91" fill="none" xmlns="http://www.w3.org/2000/svg">
    <path d="M31.168 21.203c-.902-1.031-2.012-1.548-3.334-1.548H.81a.781.781 0 0 1-.585-.228.694.694 0 0 1-.225-.5V.727c0-.18.075-.347.225-.5A.781.781 0 0 1 .81 0h28.557c7.205 0 13.422 2.944 18.647 8.827l6.937 8.462-13.512 16.47-10.271-12.556ZM81.076 8.736C86.3 2.912 92.546 0 99.813 0h28.467c.24 0 .419.061.541.181.118.123.179.304.179.546v18.2c0 .182-.061.35-.179.5-.122.152-.301.228-.541.228h-27.025c-1.32 0-2.431.517-3.333 1.548L78.013 45.408l19.998 24.387c.902.972 1.981 1.457 3.244 1.457h27.025c.24 0 .419.076.541.228.118.152.179.35.179.59v18.2c0 .181-.061.35-.179.5-.122.152-.301.228-.541.228H99.813c-7.267 0-13.483-2.942-18.648-8.827L64.591 61.97l-16.577 20.2c-5.225 5.886-11.47 8.828-18.737 8.828H.81c-.24 0-.422-.076-.54-.228-.122-.152-.18-.348-.18-.593v-18.2a.78.78 0 0 1 .18-.5c.118-.151.3-.227.54-.227h27.024c1.261 0 2.372-.515 3.334-1.548l19.547-23.84 30.36-37.126Z" fill="#00D1FF"/>
    <path fill="url(#a)" d="M0 0h129v91H0z"/>
    <defs>
        <linearGradient id="a" x1="64.5" y1="91" x2="64.5" y2="-39.623" gradientUnits="userSpaceOnUse">
            <stop stop-color="#06061B"/>
            <stop offset="1" stop-color="#06061B" stop-opacity=".76"/>
        </linearGradient>
    </defs>
</svg>
